icons/Business/slideshow-2-line.svg

<svg xmlns="http://www.w3.org/2000/svg" viewBox="0 0 24 24">
    <g>
        <path fill="none" d="M0 0h24v24H0z"/>
        <path d="M13 17v3h5v2H6v-2h5v-3H4a1 1 0 0 1-1-1V4H2V2h20v2h-1v12a1 1 0 0 1-1 1h-7zm-8-2h14V4H5v11zm5-9l5 3.5-5 3.5V6z"/>
    </g>
</svg>

<svg viewBox="0 0 24 24" xmlns="http://www.w3.org/2000/svg"><path d="M13 17V20H18V22H6V20H11V17H4C3.44772 17 3 16.5523 3 16V4H2V2H22V4H21V16C21 16.5523 20.5523 17 20 17H13ZM5 15H19V4H5V15ZM10 6L15 9.5L10 13V6Z"/></svg>
